X:1
T:Prelude III in C# Major
C:Bach
T:New Tune
K:C#
M:3/8
L:1/16
ecGcec | fcfcfc | gcgcgc | acacac | gcgcgc | fedefd | edcdec | dedcBA | G |]

